X:39
%%etbk:tnset id:13,pos:4,rep:3
%%etbk:site1 http://www.thesession.org/tunes/display/58
T: Lads Of Laoise, The
Z: Piano Box Version by Martin Fleischmann (www.boxplayer.ch)
M: 4/4
L: 1/8
R: reel
K: Emin
|:!2!E2!1!B,B, !2!EG!3!F!1!E | !2!D2!1!A,A, !2!DEFD | !5!G!3!EE!2!D !1!EFG!4!A | !2!B2 !5!e!3!^c !4!d!2!B!1!A!3!F |
!2!E2!1!B,B, !2!EGFE | !2!D2!1!A,A, !2!DEFD| !1!E2 !3!BE !5!dE!3!BE| !1!DEF!4!A !5!B!1!E E2:|
|:!5!e!1!B!2!B!1!B !2!egfe| !1!defa !4!gfe!1!d| !2!B!1!d!2!ef !4!gfge | !3!fgaf !4!gfed|
!2!e!1!B!2!B!1!B !3!G!5!B!2!F!5!B | !1!E!3!BB!2!A !3!B!1!def | !4!g2ge !3!f2fd| !2!efe!1!d !2!B!1!A!3!F!1!D:|

